packages/katcn/src/icons/svg/user-solid.svg

<svg width="24" height="25" viewBox="0 0 24 25" fill="none" xmlns="http://www.w3.org/2000/svg">
<path d="M20.7 18.0761C19.7 15.6761 17.8 13.8761 15.5 12.9761C16.8 11.9761 17.6 10.3761 17.6 8.67607C17.6 5.47607 15.1 2.97607 12 2.97607C8.9 2.97607 6.4 5.47607 6.4 8.57607C6.4 10.2761 7.2 11.8761 8.5 12.8761C6.2 13.7761 4.3 15.5761 3.3 17.9761C2.9 18.9761 3 20.1761 3.6 21.0761C4.2 22.0761 5.3 22.5761 6.5 22.5761H17.6C18.8 22.5761 19.8 21.9761 20.5 21.0761C21.1 20.1761 21.2 19.0761 20.7 18.0761Z" fill="black"/>
</svg>

<svg xmlns="http://www.w3.org/2000/svg" fill="none" viewBox="0 0 24 25"><path fill="#000" d="M20.7 18.076c-1-2.4-2.9-4.2-5.2-5.1 1.3-1 2.1-2.6 2.1-4.3 0-3.2-2.5-5.7-5.6-5.7s-5.6 2.5-5.6 5.6c0 1.7.8 3.3 2.1 4.3-2.3.9-4.2 2.7-5.2 5.1-.4 1-.3 2.2.3 3.1.6 1 1.7 1.5 2.9 1.5h11.1c1.2 0 2.2-.6 2.9-1.5.6-.9.7-2 .2-3"/></svg>
